src/assets/images/question-mark.svg

<svg fill="none" height="18" viewBox="0 0 18 18" width="18" xmlns="http://www.w3.org/2000/svg"><circle cx="9" cy="9" fill="#e1e1e1" r="9"/><path d="m8.06493 10.8317h1.09213v-.0725c.01527-.87831.2673-1.27163.91644-1.67258.6836-.41241 1.1036-.99284 1.1036-1.85203 0-1.24105-.9394-2.08115-2.34081-2.08115-1.28687 0-2.3179.75227-2.36754 2.12697h1.16086c.04582-.80955.62243-1.16468 1.20668-1.16468.64917 0 1.17611.43151 1.17611 1.1074 0 .56898-.35511.96993-.80952 1.25251-.71026.43532-1.13031.86682-1.13795 2.28356zm.57661 2.3217c.41623 0 .76373-.3398.76373-.7637 0-.4162-.3475-.7599-.76373-.7599-.42005 0-.76372.3437-.76372.7599 0 .4239.34367.7637.76372.7637z" fill="#737373"/></svg>

<svg width="18" height="18" viewBox="0 0 18 18" fill="none" xmlns="http://www.w3.org/2000/svg">
<circle cx="9" cy="9" r="9" fill="#E1E1E1"/>
<path d="M8.06493 10.8317H9.15706V10.7592C9.17233 9.88089 9.42436 9.48757 10.0735 9.08662C10.7571 8.67421 11.1771 8.09378 11.1771 7.23459C11.1771 5.99354 10.2377 5.15344 8.83629 5.15344C7.54942 5.15344 6.51839 5.90571 6.46875 7.28041H7.62961C7.67543 6.47086 8.25204 6.11573 8.83629 6.11573C9.48546 6.11573 10.0124 6.54724 10.0124 7.22313C10.0124 7.79211 9.65729 8.19306 9.20288 8.47564C8.49262 8.91096 8.07257 9.34246 8.06493 10.7592V10.8317ZM8.64154 13.1534C9.05777 13.1534 9.40527 12.8136 9.40527 12.3897C9.40527 11.9735 9.05777 11.6298 8.64154 11.6298C8.22149 11.6298 7.87782 11.9735 7.87782 12.3897C7.87782 12.8136 8.22149 13.1534 8.64154 13.1534Z" fill="#737373"/>
</svg>
